X:50
T:Miss Monaghan   Reel  Allan's # 50
C:Trad/Anon
B:Allan's Irish Fiddler (pub. Mozart Allen,  Glascow) date unknown
Z:FROM ALLAN'S TO NOTEWORTHY, FROM NOTEWORTHY TO ABC, MIDI AND .TXT BY VINCE
BRENNAN Dec. 2002 (HTTP://WWW.SOSYOURMOM.COM)
I:abc2nwc
M:2/2
L:1/8
K:D
D2 (3(FED) (FA) A2|BcBA FAAc|dedB Acde|fede (fe) e2|
D2 (3(FED) (FA) A2|BcBA FAAc|dedB AcdB|AFEG (FD) D2:|
|:faab afdf|gefd edBc|dedB Acde|fedf e2e2|
fgab afdf| (3(gag) (fd)edBc|dedB AcdB|AFEG (FD) D2:|
